!!!SOCIAL_FUNCTION: songs of affection
!!!PDT:	1929
!!!LING_GROUP: Caddoan
!!!LANG: Non-Tone
!!!REG: Oklahoma
!!!COM: Anon.
!!!OTL: Song of Affection (a)
!!!ODT: <1920//
!!!MPN: Laduda desadu [He does everything as a chief, John Luwak]
!!!MLC: Pawnee, Oklahoma, United States of America
!! Song was recorded either 1919 or 1920.
!!!AGN: monody
!!!AMT: irregular
!!!RWG: Transcribed pitches, durations, and meters are only approximate.
!! Drum not recorded
**kern
*ICvox
*Imale
*clefF4
*k[f#c#g#d#]
*M2/4
*MM76
*[A,A]
*>A
=!|:1
8g#
8g#
8f#
8r
*M3/4
=2
8g#
8f#
4e
8.e
16f#
=3
4e
4..e
16f#
*M2/4
=4
[2e
=5
2e]
=6
8g#
8f#
4e
=7
8g#
8c#
4B
*M3/4
=8
4B
8.B
16B
8B
8A
=9
8B
8B
8A
8A
8A
8F#
*M2/4
=10
4E
8A
8A
=11
4F#
8F#
8F#
=12
4E
8.E
16F#
=13
4.E
8F#
=14
[2E
*M3/4
=15
4E]
4E
8.E
16F#
*M2/4
=16
2E
==:|!
*-
!!!HAO:    The following is the song of a man who is going to war.  He addresses
!!!HAO: his wife, saying, "When I die do not cry unless you really loved me,
!!!HAO: but if you love me you will cry and you will not remarry soon after
!!!HAO: I die."
!!!HTX: [no free translation]
!!!CNT: Pawnee
!!!TXO: Pawnee
!!!OCY: United States
!!!OCL: Frances Densmore
!!!YOR: Frances Densmore, "Pawnee Music"
!!!YOR: Bulletin 93, page 94, No. 68
!!!PPR: Smithsonian Institution, Bureau of American Ethnology
!!!PPR: Government Printing Office
!!!PDT: 1926
!!!PPP: Washington, DC, United States of America
!!!YEC: Electronic Copyright 2000 David Huron
!!!YER: September 2000
!!!YEN: United States of America
!!!ENC: David Huron
!!!RDT: September 10, 2000
!!!EEV: Release 1.0
!!!AIN: vox
